X:1
T:Title
%%score { ( 1 4 ) | ( 2 3 ) }
L:1/8
M:4/4
K:F
V:1 treble nm="Grand Piano"
V:4 treble 
V:2 bass 
V:3 bass 
V:1
 z4 z2[Q:1/4=110] F>G | A2 A>B c2 d2 | c4 A4 | F2 F>F [=B,FG]2 [B,FA]2 |[M:3/4] [CEG]6 | %5
[M:1/4] F>G |[M:4/4] A2 A>B c2 d2 | c4 A4 | F2 [CF]>[DG] AF G2 | F6 z2 | c4 A4 | B6 z2 | %12
 [EG]2 [EG]>[EG] [Ec]2 [GB]2 |[M:7/8] z2 F2 c3 |[M:1/4] F>G |[M:4/4] A2 A>B c2 d2 | c4 A4 | %17
 F2 [CF]>[DG] AF G2 |[M:3/4] F6 |] %19
V:2
 z4 z2 [F,A,C]>[F,B,C] | [F,CF]2 [F,CF]>[F,G,F] [F,A,F]2 [F,B,F]2 | [F,A,F]4 [F,CF]4 | %3
 [F,A,C]2 [F,A,C]>[F,A,C] D,2 G,,2 |[M:3/4] C,6 |[M:1/4] [F,A,]>[F,B,F] | %6
[M:4/4] [F,CF]2 [F,CF]>[F,G,F] [F,A,F]2 [F,B,F]2 | [F,A,F]4 [F,C]4 | %8
 [D,A,D]2 [A,,F,]>[B,,F,] [C,C]-[C,A,C] [C,B,C]2 | [F,A,C]6 z2 | [F,A,F]2 [F,A,]2 C2 z2 | %11
 [B,,F,]2 [B,,F,]2 [B,,F,]2 z2 | [C,B,]2 [C,B,]>[C,B,] [C,G,]2 [E,C]2 | %13
[M:7/8] [F,CF]2 [F,C]2 [F,A,F]3 |[M:1/4] [F,A,C]>[F,B,C] | %15
[M:4/4] [F,CF]2 [F,CF]>[F,G,F] [F,A,F]2 [F,B,F]2 | [F,A,F]4 [F,C]4 | %17
 [D,A,D]2 [A,,F,]>[B,,F,] [C,C]-[C,A,C] [C,B,C]2 |[M:3/4] [F,A,C]6 |] %19
V:3
 x8 | x8 | x8 | x8 |[M:3/4] x6 |[M:1/4] x2 |[M:4/4] x8 | x8 | z4 .F,2 z2 | x8 | z4 F,4 | x8 | x8 | %13
[M:7/8] x7 |[M:1/4] x2 |[M:4/4] x8 | x8 | z4 .F,2 z2 |[M:3/4] x6 |] %19
V:4
 x8 | x8 | x8 | x8 |[M:3/4] x6 |[M:1/4] x2 |[M:4/4] x8 | x8 | x8 | x8 | z2 F2 z2 _E2 | %11
 D2 D2 D2 z2 | x8 |[M:7/8] A- A3 z z2 |[M:1/4] x2 |[M:4/4] x8 | x8 | x8 |[M:3/4] x6 |] %19

